X: 4
T: Charlie Hunter
M: 6/8
G: Charlie Hunter
L: 1/8
K: D
A|"D"DFA "G"GBd|"D"Adf "A"a2 g|"D"fed "G"Bcd|"A7"ecA GFE|"D"DFA "G"GBd|"D"Adf "A"a2 g|
"D"fef "A7"gec|"G"edd "D"d2:||e/2f/2|"D"afd "D7"d2 c|"G"BGG G2F|"E"E^GB "E7"e2 d|
"A"cAA "A7"A2a/2g/2|"D"fdA "D7"FDF|"G"GBd g3|"D"fef "A7"gec|"G"edd "D"d2:||
